X:234
T:Errol on the Green
C:Trad (A) + Pat Shaw (B)
L:1/4
M:2/2
S:Colin Hume's website,  colinhume.com  - chords can also be printed below the stave.
Q:1/2=112
K:D
P:A
|: "D"FA "/"AF | "Em"GF "/"ED | "D"FA "A7"AA | "D"f2 "/"d2 |\
"Bm"d3/e/ "/"ff | "Em"ge "/"ef/e/ | "G"dB "D"AF | "A7"E2 "D"D2 :|
P:B
|: "D"fa "/"a2 | "Bm"fd "/"d2 | "D"fa "G"ba/g/ | "E7/G#"f2 "A7"e2 |\
"D"fa "/"ab/a/ |1 "Em"gf "/"ed | "D"Ad "Bm"df | "A7"e2 "D"d2 :|2 "Em"gf "/"ef/e/ | "G"dB "D"AF | "A7"E2 "D"D2 |]

